X:1
T:6 Gesänge
T:Gute Nacht
T:Ferdinand Hiller
T:Emanuel Geibel
T:Gute Nacht
T:Op. 37, Heft 2, No. 1
T:CPDL   —   Creative Commons Attribution Non Commercial 3.0
T:CPDL   —   Creative Commons Attribution Non Commercial 3.0
T:CPDL   —   Creative Commons Attribution Non Commercial 3.0
T:CPDL   —   Creative Commons Attribution Non Commercial 3.0
C:Ferdinand Hiller
Z:Emanuel Geibel
Z:CPDL   —   Creative Commons Attribution Non Commercial 3.0
%%score [ ( 1 2 ) 3 4 ]
L:1/8
Q:1/4=90
M:2/4
K:Ab
V:1 treble nm="Sopran\nAlt"
V:2 treble 
V:3 treble-8 nm="Tenor"
V:4 bass nm="Bass"
V:1
!pp!"^Etwas bewegt" A | (A2 c)A | F2 G2 |!<(! (E2 A2)!<)! |!>(! G2!>)! z"^dolce" E | (d2 c)B | %6
w: 1.  Schon|fängt _ es|an zu|däm- *|mern, der|Mond _ als|
w: 2.  Nun|su- * chen|in den|Zwei- *|gen ihr|Nest _ die|
w: ||||||
w: ||||||
 AG Ac | BG E z | z2 z!pp! A | (A2 c)A | F2 G2 |!<(! (E2 A2)!<)! |!>(! G2!>)! z"^dolce" E | %13
w: 1. Hirt er- wacht, als|Hirt er- wacht,|1. und|singt _ den|Wol- ken-|1. läm- *|mern ein|
w: 2. Vö- ge- lein, die|Vö- ge- lein,|2. die|Halm' _ und|Blu- men|2. nei- *|gen das|
w: 3. Au- ge blüht, ein|Au- ge blüht,||||||
w: 4. nah wie fern, so|nah wie fern,||||||
 (e2 d)c |!<(! fd!<)! Bd | c!>(!e =A!>)!c | B3 |!p! B | BE{/G} FE | BE z d | dE{/G} FE | dE z E | %22
w: Lied _ zur|gu- ten Nacht, ein|Lied zur gu- ten|Nacht.|1. Und|wie er singt so|lei- se, und|wie er singt so|lei- se, da|
w: Haupt _ im|Mon- den- schein, das|Haupt im Mon- den-|schein.|2. Und|selbst des Mühl- rads|Wel- len, sie|hö- ren auf zu|schwel- len, und|
w: |||||||||
w: |||||||||
!<(! =EE!<)! FB |!>(! B2 =A!>)!F |!<(! FF!<)! Bd |!>(! (d2 c)!>)!A |!mf! dd cB | %27
w: dringt vom Ster- nen-|krei- se der|Schall ins Ohr mir|sacht, _ da|dringt vom Ster- nen-|
w: selbst des Mühl- rads|Wel- len, sie|hö- ren auf zu|schwel- len und|schlum- mern mur- melnd|
w: |||||
w: |||||
 e(c A)"^decresc."A | (3AGA cB | B4 |"^dolce" A2 EF | E4 | A2 EF | E3 E |!<(! A2 G!<)!E | %35
w: krei- * se der|Schall _ ins Ohr mir|sacht.|1\-4.  Schla- fet in|Ruh'!|schla- fet in|Ruh'! vor-|ü- ber, vor-|
w: ein, _ _ und|schlum- * mern mur- melnd|ein.||||||
w: ||||||||
w: ||||||||
 c2 B!p!E |!<(! (3E=D!<)!E!>(! (3FG!>)!F |!<(! E3!<)! E |!f! e2 c2 |!>(! A2 G2 | F2!>)! G2 | %41
w: ü- ber, vor-|ü- ber der Tag und sein|Schwall; die|Lie- be|Got- tes|deckt euch|
w: ||||||
w: ||||||
w: ||||||
!<(! =E3 c!<)! |!>(! c3 B!>)! | (B2 E)A |!<(! (G d2)!<)!!>(! G!>)! | A3 z | z2"^dolce" z e | %47
w: zu all-|ü- ber-|all, * all-|ü- * ber-|all,|all-|
w: ||||||
w: ||||||
w: ||||||
 ec A!<(!c | c3!<)!!>(! B!>)! | !fermata!A3 z |] %50
w: ü- ber- all, all-|ü- ber-|all.|
w: |||
w: |||
w: |||
V:2
 E | E3 E | E2 D2 | (C2 F2) | E2 x E | (B2 A)G | E3 =D | E3 x | x2 x E | E3 E | E2 D2 | (C2 F2) | %12
w: ||||||1. Hirt er-|wacht,|||||
w: ||||||2. Vö- ge-|lein,|||||
w: ||||||3. Au- ge|blüht,|||||
w: ||||||4. nah wie|fern,|||||
 E2 x G | _G3 G | FF _GG | _GG FF | F3 | D | DD DD | DD x D | DD DD | DD x D | DD DF | E2 EE | %24
w: ||||||||||||
w: ||||||||||||
w: ||||||||||||
w: ||||||||||||
 DD FF | _G2- GG | FF _FF | E2 EE | =DD DD | (E2 _D2) | C2 EF | E4 | A2 EF | E3 E | D2 DD | E2 EE | %36
w: ||||||||||||
w: ||||||||||||
w: ||||||||||||
w: ||||||||||||
 (3E=DE (3DDD | E3 E | A2 G2 | F2 E2 | D2 D2 | C3 =E | F2 F2 | E3 =D | _D2 D2 | C3 C | F2 E2 | %47
w: |||||||||* all-|ü- ber-|
w: |||||||||||
w: |||||||||||
w: |||||||||||
 E3 E | F2 G2 | E3 x |] %50
w: all, *|||
w: |||
w: |||
w: |||
V:3
!pp! c | c3 c | c2 B2 |!<(! (A2 _c2)!<)! |!>(! B2!>)! z"^dolce" E | (G2 A)d | c=B c z | z4 | %8
w: 3.  Und|wo von|hei- ßen|Trä- *|nen ein|schmach- * tend|3. Au- ge blüht,||
w: 4.  Gut'|Nacht denn|all ihr|Mü- *|den, ihr|Lie- ben so|4. nah wie fern,||
 z2 z!pp! c | c3 c | c2 B2 |!<(! (A2 _c2)!<)! |!>(! B2!>)! z"^dolce" B | (c2 d)e |!<(! dd!<)! dB | %15
w: 3. und|wo in|ban- gem|3. Seh- *|nen ein|lie- * bend|Herz ver- glüht, ein|
w: 4. nun|ruh' auch|ich in|4. Frie- *|den, bis|glänzt _ der|Mor- gen- stern, bis|
 c!>(!c e!>)!e | d3 |!p! B | BG BG | BG z B | BG BG | BG z B |!<(! BB!<)! Bd |!>(! c2 c!>)!c | %24
w: lie- bend Herz ver-|glüht.|3. Der|Traum kommt leis und|lin- de, der|Traum kommt leis und|lin- de und|singt dem kran- ken|Kin- de ein|
w: glänzt der Mor- gen-|stern.|4. Die|Nach- ti- gall al-|lei- ne, die|Nach- ti- gall al-|lei- ne singt|noch im Mon- den-|schei- ne, singt|
!<(! BB!<)! dd |!>(! e2- e!>)!A |!mf! AA GG | (A2 A)"^decresc."A | AA AA | G4 |"^dolce" A2 cd | %31
w: trös- tend Hoff- nungs-|lied, _ und|singt dem kran- ken|Kin- de ein|trös- tend Hoff- nungs-|lied.||
w: noch im Mon- den-|schei- ne und|lo- bet Gott den|Herrn, _ und|lo- bet Gott den|Herrn.||
 c4 | c2 cd | c3 c |!<(! B2 B!<)!B | d2 d!p!d |!<(! (3cc!<)!c!>(! (3_cc!>)!c |!<(! B=c d!<)!=d | %38
w: |||||ü- ber der Tag und sein|Schwall; _ _ die|
w: |||||||
!f! e2 e2 |!>(! c2 c2 | A2!>)! B2 |!<(! G3 G!<)! |!>(! F2 d2!>)! | c3 _c |!<(! B2!<)!!>(! B2!>)! | %45
w: Lie- be|Got- tes|deckt euch|zu all-|ü- ber-|all, all-|ü- ber-|
w: |||||||
 ce cA | d2 d2 | c3!<(! c | d2!<)!!>(! d2!>)! | !fermata!c3 z |] %50
w: all, all- ü- ber,|ü- ber-|all, all-|ü- ber-|all.|
w: |||||
V:4
!pp! A, | A,3 A, | A,2 E,2 |!<(! (E,2 =D,2)!<)! |!>(! E,2!>)! z2 | z4 | z2 z A, | G,3 C | %8
w: ||||||1. der|Mond als|
w: ||||||2. ihr|Nest die|
w: ||||||3. ein|schmach- tend|
w: ||||||4. ihr|Lie- ben|
 B,G, E,!pp!A, | A,3 A, | A,2 E,2 |!<(! (E,2 =D,2)!<)! |!>(! E,2!>)! z"^dolce" E, | =A,3 A, | %14
w: Hirt er- wacht, *||||||
w: Vö- ge- lein, *||||||
w: Au- ge blüht, *||||||
w: nah wie fern, *||||||
!<(! B,B,!<)! _G,G, | E,!>(!E, F,!>)!F, | B,3 |!p! A, | G,E, G,E, | G,E, z G, | G,E, G,E, | %21
w: |||||||
w: |||||||
w: |||||||
w: |||||||
 G,E, z G, |!<(! _G,G,!<)! F,F, |!>(! F,2 F,!>)!=A, |!<(! B,B,!<)! B,B, |!>(! _A,2- A,!>)!C, | %26
w: |||||
w: |||||
w: |||||
w: |||||
!mf! D,D, D,D, | (C,2 C,)"^decresc."C, | F,F, F,F, | E,4 | z4 | A,2 CA, | E,3 z | A,2 CA, | %34
w: |||||1\-4.  Schla- fet in|Ruh'!|schla- fet in|
w: ||||||||
w: ||||||||
w: ||||||||
 E,3 E, | G,2 G,!p!G, |!<(! (3A,A,!<)!A,!>(! (3A,A,!>)!A, |!<(! G,A, B,!<)!=B, |!f! C2 E,2 | %39
w: Ruh'! vor-|ü- ber, vor \-||||
w: |||||
w: |||||
w: |||||
!>(! F,2 C,2 | D,2!>)! B,,2 |!<(! C,3 C,!<)! |!>(! D,3 D,!>)! | E,3 E, |!<(! E,2!<)!!>(! E,2!>)! | %45
w: ||||||
w: ||||||
w: ||||||
w: ||||||
 A,3 A, | F,2 G,2 | A,3!<(! A, | D,2!<)!!>(! E,2!>)! | !fermata!A,3 z |] %50
w: * all-|ü- ber-|all, *|||
w: |||||
w: |||||
w: |||||

